X:1
T:60 Lessons for 2 Guitars, Op.168 - Joseph Küffner (1776 - 1856)
T:Leçon No.58
T:60 Lessons for 2 Guitars, Op.168 "à l'usage des commençants"
T:Joseph Küffner (1776 - 1856)
%%score { ( 1 2 ) ( 3 4 ) }
L:1/8
Q:3/8=48
M:6/8
K:A
V:1 treble-8 nm="Classical Guitar"
V:2 treble-8 
V:3 treble-8 nm="Guitare classique"
V:4 treble-8 
V:1
"_""^Andante" e | e2 c c2 B | A2 B c2 e | d2 B cdc | B3 z2 e |"_" [ce]ca afd | [ce]2 c A2 e | %7
 [ce]c!2!a (b/a/).g/.b/.a/.f/ | [Ace]3 z2 e | [Bdg]>fe [Bdg]>fe | [Ace]2 [ca] [ca]2 (a/e/) | %11
 [E,Ac]z[E,Ac] [E,GB]z!arpeggio![E,GBe] | [Ac]3- [Ac]2 (a/e/) | [E,Ac]2 [E,Ac] [E,GB]2 [E,GBe] | %14
 A3- A z"_" e | c2 c B2 B | A3- A z"_" =c | =c2 c c2 c | [GB]e/>(^d/e/>)(d/ e) z [E,B=d] | %19
 [E,Bd]2 [E,Bd] [E,Bd]2 [E,Bd] | [A=c] a/>(g/a/>)(g/ a) z (=c/d/) | [=G=ce]2 e{/=g} =fef | %22
!<(! [=G=c=g]2 ^g!<)!!>(! a.=g/.=f/.e/.d/!>)! | %23
 !arpeggio![=G,E=G=c]2 !arpeggio![G,EGc] [Ge]2 [=Fd] | [E=c]3 z2 e | !arpeggio![^GBe]BB d2 =c | %26
 [GB]e/>(^d/e/>)(d/ e) z e | [GBe].!4!b/.g/.e/.d/ [A=c].a/.e/.d/.c/ | [GB]e/>(^d/e/>)(d/ e2) e | %29
 .d/.^c/(B/c/) a .e/.d/(c/d/) a |!<(! e2 ^e!<)! !arpeggio!!fermata![DAdf]3/2!<(! .f/.g/.a/!<)! | %31
"_" B2 z e2 z | c2 z2 z e | .d/.c/(B/c/) !>!a/>c/ .e/.d/(c/d/) !>!a/>f/ | %34
!<(! e2 ^e!<)! !arpeggio!!fermata![DAdf]3/2!<(! .f/.g/.a/!<)! |"_" B2 z e2 z | [A,A]2 z2 z e | %37
"_" [ce]ca afd | [ce]2 c A2 e | [ce]c!2!a (b/a/).g/.b/.a/.f/ | [Ace]3 z2 e | [Bdg]>fe [Bdg]>fe | %42
 [Ace]2 [ca] [ca]2 (a/e/) | [E,Ac]2 [E,Ac] [E,GB]2 !arpeggio![E,GBe] | [Ac]3- [Ac]2 (a/e/) | %45
 [E,Ac]2 [E,Ac] [E,GB]2 !arpeggio![E,GBe] | [A,A]2 z e-e/f/e | a2 z g>fg |"_" [cea]2 z [Ace]2 z | %49
 [EAc]2 z z2 |] %50
V:2
 c | c2 A A2 E | C2 E A2 c | B2 E ABA | E3 z2 z | A,3 D3 | A,2 z z2 z | A,3 D3 | A,3 z2 z | %9
 !arpeggio!E,3/2 z/ z !arpeggio!E,3/2 z/ z | A,3 z2 z | x6 | A,3- A,2 z | x6 | A,3- A, z c | %15
 A2 A E2 E | C3- C z z | A2 A A2 A | E, z z z2 x | x6 | A, z z z2 z | =C2 z D3 | E2 z =F z z | x6 | %24
 x6 | E, z z A,2 z | E, z z z2 z | E, z z A, z z | E, z z z2 z | x6 | x6 | x6 | x6 | x6 | x6 | x6 | %36
 x6 | A,3 D3 | A,2 z z2 z | A,3 D3 | A,3 z2 z | !arpeggio!E,3/2 z/ z !arpeggio!E,3/2 z/ z | %42
 A,2 z z2 z | x6 | A,3- A,2 z | x6 | x6 | z2 z [Bd]3 | A,2 x A,2 x | A,2 x2 x |] %50
V:3
 z | z6 | z6 | z6 | z6 |"_" z/ E/A/c/E/A/ z/ F/A/d/F/A/ | z/ E/A/c/E/A/ z/ E/A/c/E/A/ | %7
 z/ E/A/c/E/A/ z/ F/A/d/F/A/ | z/ E/A/c/E/A/ z/ E/A/c/E/A/ | z/ E/G/d/E/G/ z/ E/G/d/E/G/ | %10
 z/ E/A/c/E/A/ z/ E/A/c/E/A/ | z/ E/A/c/E/A/ z/ E/G/B/E/G/ | %12
 z/!<(! E/A/E/c/A/!<)!!>(! e/c/a/e/c/A/!>)! | z/ E/A/c/E/A/ z/ E/G/d/E/G/ | z/ E/A/c/E/A/ A,2 z | %15
 z6 | z6 | z/ E/A/=c/E/A/ z/ E/A/c/E/A/ | z/ E/G/B/E/G/ z/ E/G/B/E/G/ | %19
 z/ E/G/B/E/G/ z/ E/G/B/E/G/ | z/ E/A/=c/E/A/ z/ E/A/c/E/A/ | z/ E/=G/=c/E/G/ z/ D/G/B/D/G/ | %22
 z/!<(! E/=G/=c/E/c/!<)! =F/!>(!.c/.B/.A/.G/.F/!>)! | z/ E/=G/=c/E/G/ z/ =F/G/B/F/G/ | %24
 z/ E/=G/=c/E/G/ =C[EGc] z | z/ E/^G/B/E/G/ z/ E/A/=c/E/A/ | z/ E/G/B/E/G/ z/ E/G/B/E/G/ | %27
 z/ E/G/B/E/G/ z/ E/A/=c/E/A/ | z/ E/G/B/E/G/ z/ E/G/B/E/G/ | %29
 !arpeggio![A,EA^c] z z !arpeggio![B,Gd] z z |!<(! [CA]2 [CA]!<)! !fermata![DA]3/2 z/ z | %31
"_" [EA]2 z [EGB]2 z | [A,EAc]2 z z2 z | !arpeggio![A,EAc] z z !arpeggio![B,Gd] z z | %34
!<(! [CA]2 [CA]!<)! !fermata![DA]3/2 z/ z |"_" [EA]2 z [EGB]2 z | z/ E/A/c/E/A/ z/ E/A/c/E/A/ | %37
"_" z/ E/A/c/E/A/ z/ F/A/d/F/A/ | z/ E/A/c/E/A/ z/ E/A/c/E/A/ | z/ E/A/c/E/A/ z/ F/A/d/F/A/ | %40
 z/ E/A/c/E/A/ z/ E/A/c/E/A/ | z/ E/G/d/E/G/ z/ E/G/d/E/G/ | z/ E/A/c/E/A/ z/ E/A/c/E/A/ | %43
 z/ E/A/c/E/A/ z/ E/G/B/E/G/ | z/!<(! E/A/E/c/A/!<)!!>(! e/c/a/e/c/A/!>)! | %45
 z/ E/A/c/E/A/ z/ E/G/d/E/G/ | z/ E/A/c/E/A/ z/ E/G/d/E/G/ | z/ E/A/c/E/A/ z/ E/G/d/E/G/ | %48
"_" !arpeggio![A,EAc]2 z !arpeggio![A,EAc]2 z | !arpeggio![A,EAc]2 z z2 |] %50
V:4
 x | x6 | x6 | x6 | x6 | A,3 A,3 | A,3 A,3 | A,3 A,3 | A,3 A,3 | E,3 E,3 | A,3 A,3 | E,3 E,3 | %12
 A,6 | E,3 E,3 | A,4 x2 | x6 | x6 | A,3 A,3 | E,3 E,3 | E,3 E,3 | A,3 A,3 | =G,3 G,3 | E,3 =F,3 | %23
 =G,3 G,3 | =C3 C2 z | E,3 E,3 | E,3 E,3 | E,3 E,3 | E,3 E,3 | x6 | x6 | x6 | x6 | x6 | x6 | x6 | %36
 A,3 A,3 | A,3 A,3 | A,3 A,3 | A,3 A,3 | A,3 A,3 | E,3 E,3 | A,3 A,3 | E,3 E,3 | A,6 | E,3 E,3 | %46
 A,3 E,3 | A,3 E,3 | x6 | x5 |] %50

